X:20
T:Morgan Ratler. WM.020
T:Morgan Rattler. WM.020
M:6/8
L:1/8
Q:3/8=120
S:Wm.Mittell’s MS, New Romney,Kent,1799
R:.Jig
O:England
A:Kent
Z:vmp.Chris Partington
K:D
AGF EFG|FAFD2d|AGF EBA|B2A Bcd|!
AGF EFG|FAFD2(d/e/)|fed ecA|B2A Bcd:|!
|:d2e fdB|c2d ecA|d2e fed|f2e fga|!
d2e fdB|c2d ecA|dcB AGF|B2A Bcd:|!
|:D2d dcd|E2e ede|D2d dcd|B2A Bcd|!
D2d dcd|E2e efg|agf edc|B2A Bcd:|

